X:1
T:Title
%%score { 1 | 2 }
L:1/8
Q:1/4=100
M:3/4
K:F
V:1 treble nm="Grand Piano"
V:2 bass 
V:1
 A2 G2 F2 | c3 c c2 | G2 A2 B2 | A6 | c2 B2 A2 | [CDA]3 [DG] [DG]2 | [EB]2 [FA]2 F2 | [EG]6 | %8
w: Jay~Deavereaux * *||||||||
 A2 G2 F2 | c3 c c2 | G2 A2 B2 | [GB]3 A A2 | F2 G2 A2 | [DB]6 | [EB]2 [EA]2 [EG]2 | [A,F]6 |] %16
w: ||||||||
V:2
 [F,CF]2 [F,B,E]2 [F,A,]2 | [F,A,F]3 [G,B,E][K:treble] [A,CF]2 | [B,CE]2 [A,CE]2 [G,CE]2 | %3
 [F,CF]6 | [F,A,F]2 [F,DF]2 [F,CF]2 | B,,3 [B,,B,] [B,,B,]2 | [C,G,]2 [C,F,]2 [C,A,]2 | [C,C]6 | %8
 [F,CF]2 [F,B,E]2 [F,A,]2 | [F,A,F]3 [G,B,E] [A,CF]2 | [B,D]2 [A,D^F]2 [G,DG]2 | %11
 [E,C]3 [F,CF] [F,CF]2 | [F,A,]2 [F,B,E]2 [F,C_E]2 | [B,,B,]6 | [C,G,]2 [C,C]2 [C,B,]2 | %15
 [F,,F,]6 |] %16

